X:349
T: Sha luo dai chou
N: C1288
O: China,Fujian
S: MM]
R: Shange]
M: 2/4
L: 1/16
K: C
E2E2B,2E2 | D4E2B,2 | B,2E2D2B,2 | C2D2D4 | A,4C2D2 |
C2D2C2A,2 | G,2A,2C2EC | D2C2A,2A,2 | G,4G,2z2

@@@ Tune index: 6350
